X:119
T:Marcus Hernon's Air
M:3/4
L:1/8
K:E Dorian
|:ef|"Em"g4 ag|"D"f4 gf|"C"e3 d "D"BA|"Em"B4 BA|
"G"G2 g2 g/f/e|"D"f3 d cA|"Am7"G4 "D"AF|"G"G4:|!
|:GB|"Am"c4 BA|"Bm"B/d/d d2 BA|"C"G2 g2 fd|"Em/C"e4 ga|!
"Em"b4 b/a/g/b/|"D"a3 g [ea][db]|"C"[e6 c'6]-"C9"|"C"[e6 c'6] d ef|!
"Em"g4 ag|"D"f4 gf|"C"e3 d "D"BA|"Em"B4 BA|!
"G"G2 g2 g/f/e|"D"f3 d cA|"Am7"G4 "D"AF|"G"G4:|

